X:1
T:Psalm 67
T:V 3
L:1/4
M:14/4
I:linebreak $
K:C
V:1 treble nm="Pipe Organ" snm="Org."
V:1
 D2 A A c B A G F2 E3 z |$ E2 F G A d c2 B2 A3 z |$ D2 A A c B A G F2 E3 z |$ %3
w: Die aar- de het sy vrug ge- le- wer;|ons sal deur U ge- se- ënd wees.|U sal ons se- ën; U, die Ge- wer,|
 E2 F G A d c2 B2 A3 z |] %4
w: sal al wat leef, eer- bie- dig vrees.|

